actions/scalable/transform-crop-and-resize.svg

<svg height="22" width="22" xmlns="http://www.w3.org/2000/svg" xmlns:sodipodi="http://sodipodi.sourceforge.net/DTD/sodipodi-0.dtd" xmlns:inkscape="http://www.inkscape.org/namespaces/inkscape">
 <path d="m3 3v2 1h3v-1-2h-2-1zm13 0v1h2v2h1v-2-1h-3zm-12 1h1v1h-1v-1zm3 1v1h2v-1h-2zm3 0v1h2v-1h-2zm3 0v1h2v-1h-2zm-8 2v2h1v-2h-1zm4 0v7h1 5v-1h-5v-6h-1zm7 0v2h1v-2h-1zm-11 3v2h1v-2h-1zm11 0v2h1v-2h-1zm-11 3v2h1v-2h-1zm11 0v2h1v-2h-1zm-13 3v1 2h1 1 1v-3h-3zm4 0v1h2v-1h-2zm3 0v1h2v-1h-2zm3 0v1h2v-1h-2zm3 0v1 1 1h1 1 1v-1-1-1h-2-1zm-12 1h1v1h-1v-1zm13 0h1v1h-1v-1z" fill="#4d4d4d" transform="matrix(1 0 0 1 0 0)"/>
</svg>

<?xml version="1.0" encoding="UTF-8" standalone="no"?>
<!-- Created with Inkscape (http://www.inkscape.org/) -->

<svg
   xmlns:dc="http://purl.org/dc/elements/1.1/"
   xmlns:cc="http://creativecommons.org/ns#"
   xmlns:rdf="http://www.w3.org/1999/02/22-rdf-syntax-ns#"
   xmlns:svg="http://www.w3.org/2000/svg"
   xmlns="http://www.w3.org/2000/svg"
   xmlns:sodipodi="http://sodipodi.sourceforge.net/DTD/sodipodi-0.dtd"
   xmlns:inkscape="http://www.inkscape.org/namespaces/inkscape"
   width="22"
   height="22"
   id="svg3760"
   version="1.1"
   inkscape:version="0.48+devel r"
   sodipodi:docname="transform-crop-and-resize.svg">
  <defs
     id="defs3762" />
  <sodipodi:namedview
     id="base"
     pagecolor="#ffffff"
     bordercolor="#666666"
     borderopacity="1.0"
     inkscape:pageopacity="0.0"
     inkscape:pageshadow="2"
     inkscape:zoom="24.048284"
     inkscape:cx="10.44787"
     inkscape:cy="11.406451"
     inkscape:document-units="px"
     inkscape:current-layer="layer1"
     showgrid="true"
     fit-margin-top="0"
     fit-margin-left="0"
     fit-margin-right="0"
     fit-margin-bottom="0"
     inkscape:window-width="1366"
     inkscape:window-height="669"
     inkscape:window-x="-4"
     inkscape:window-y="25"
     inkscape:window-maximized="1"
     inkscape:showpageshadow="false">
    <sodipodi:guide
       position="4.1796875e-06,21.999997"
       orientation="22,0"
       id="guide4116" />
    <sodipodi:guide
       position="4.1796875e-06,-2.6953124e-06"
       orientation="0,22"
       id="guide4118" />
    <sodipodi:guide
       position="22.000004,-2.6953124e-06"
       orientation="-22,0"
       id="guide4120" />
    <sodipodi:guide
       position="22.000004,21.999997"
       orientation="0,-22"
       id="guide4122" />
    <sodipodi:guide
       position="2.0000042,19.999997"
       orientation="18,0"
       id="guide4124" />
    <sodipodi:guide
       position="2.0000042,1.9999973"
       orientation="0,18"
       id="guide4126" />
    <sodipodi:guide
       position="20.000004,1.9999973"
       orientation="-18,0"
       id="guide4128" />
    <sodipodi:guide
       position="20.000004,19.999997"
       orientation="0,-18"
       id="guide4130" />
    <sodipodi:guide
       position="3.0000042,18.999997"
       orientation="16,0"
       id="guide4132" />
    <sodipodi:guide
       position="3.0000042,2.9999973"
       orientation="0,16"
       id="guide4134" />
    <sodipodi:guide
       position="19.000004,2.9999973"
       orientation="-16,0"
       id="guide4136" />
    <sodipodi:guide
       position="19.000004,18.999997"
       orientation="0,-16"
       id="guide4138" />
    <inkscape:grid
       type="xygrid"
       id="grid4140" />
  </sodipodi:namedview>
  <metadata
     id="metadata3765">
    <rdf:RDF>
      <cc:Work
         rdf:about="">
        <dc:format>image/svg+xml</dc:format>
        <dc:type
           rdf:resource="http://purl.org/dc/dcmitype/StillImage" />
        <dc:title />
      </cc:Work>
    </rdf:RDF>
  </metadata>
  <g
     inkscape:label="Capa 1"
     inkscape:groupmode="layer"
     id="layer1"
     transform="translate(-553.72253,-583.11926)">
    <path
       style="opacity:1;fill:#666666;fill-opacity:1;stroke:none;stroke-width:0.1;stroke-miterlimit:4;stroke-dasharray:none;stroke-opacity:1"
       d="M 3 3 L 3 5 L 3 6 L 6 6 L 6 5 L 6 3 L 4 3 L 3 3 z M 16 3 L 16 4 L 18 4 L 18 6 L 19 6 L 19 4 L 19 3 L 16 3 z M 4 4 L 5 4 L 5 5 L 4 5 L 4 4 z M 7 5 L 7 6 L 9 6 L 9 5 L 7 5 z M 10 5 L 10 6 L 12 6 L 12 5 L 10 5 z M 13 5 L 13 6 L 15 6 L 15 5 L 13 5 z M 5 7 L 5 9 L 6 9 L 6 7 L 5 7 z M 9 7 L 9 14 L 10 14 L 15 14 L 15 13 L 10 13 L 10 7 L 9 7 z M 16 7 L 16 9 L 17 9 L 17 7 L 16 7 z M 5 10 L 5 12 L 6 12 L 6 10 L 5 10 z M 16 10 L 16 12 L 17 12 L 17 10 L 16 10 z M 5 13 L 5 15 L 6 15 L 6 13 L 5 13 z M 16 13 L 16 15 L 17 15 L 17 13 L 16 13 z M 3 16 L 3 17 L 3 19 L 4 19 L 5 19 L 6 19 L 6 16 L 3 16 z M 7 16 L 7 17 L 9 17 L 9 16 L 7 16 z M 10 16 L 10 17 L 12 17 L 12 16 L 10 16 z M 13 16 L 13 17 L 15 17 L 15 16 L 13 16 z M 16 16 L 16 17 L 16 18 L 16 19 L 17 19 L 18 19 L 19 19 L 19 18 L 19 17 L 19 16 L 17 16 L 16 16 z M 4 17 L 5 17 L 5 18 L 4 18 L 4 17 z M 17 17 L 18 17 L 18 18 L 17 18 L 17 17 z "
       transform="translate(553.72253,583.11926)"
       id="rect4150" />
  </g>
</svg>
